X:343
T:Over the Water to Charley. RH.343
R:jig
S:Rev.R.Harrison’s MS,c1815,Cumbria
O:England
A:Temple Sowerby,Cumbria
Z:vmp.Simon Wilson. Review PJH, 2008.
M:6/8
L:1/8
Q:3/8=120
K:D
DFA AFA|Bcd AFD|DFA AFA|B3 d3|\
DFA AFA|Bcd AFD|dfd ecA|B3 d3:|!
|:dfd ecA|Bcd AFD|dfd ecA|B3 d3|\
dfd cec|BdB AFD|DFA AFA|B3 d3|]

